!!!OTL: So manchet leewe, lange Johr, hewwt wina See to fohrn
!!!ARE: Europa, Mitteleuropa, Deutschland, Schleswig - Holstein, Kiel -    Holtenau
!!!SCT: D0226
!!!YEM: Copyright 1995, estate of Helmut Schaffrath.
**kern
*ICvox
*Ivox
*M3/4
*k[]
*C:
=1
{4g
=2
2e
4f
=3
2g
4a
=4
2g
4f#
=5
2f
4g
=6
2ee
4dd
=7
2a
4b
=8
[2.cc
=9
4cc]
4r}
{4g
=10
2e
4f
=11
2g
4a
=12
2b
4cc
=13
2b
4b
=14
2b
4f#
=15
2a
4g
=16
[2.e
=17
4e]
4r}
{4e
=18
2f
4g
=19
2a
4ff
=20
2ff
4ee
=21
2ee
4ee
=22
2ee
4b
=23
2dd
4cc
=24
[2.a
=25
4a]
4r}
{4cc
=26
2dd
4cc
=27
2b
4a
=28
2a
4g
=29
2cc
4g
=30
2g
4f
=31
2b
4a
=32
[2.g
=33
4g]
4r}
{4ee
=34
2ee
4dd
=35
2ee
4ff
=36
2ff
4ee
=37
2cc
4g
=38
2ee
4g
=39
2dd
4g
=40
[2.cc
=41
4cc]
4r}
==
!!!AGN: Staende -, Lied, Seemannslied
!! moduliert in die Dominanttonart ?; mehrstimmig notiert
!!    Inzipit = Variante zum Lied
!!!ONB: ESAC (Essen Associative Code) Database: DVA
!!!AMT: simple triple
!!!AIN: vox
!!!EED: Helmut Schaffrath
!!!EEV: 1.0
*-
!!!title: @{OTL} [@{SCT}]
